icons/tokens/0xf650C3d88D12dB855b8bf7D11Be6C55A4e07dCC9/logo.svg

<svg width="32" height="32" viewBox="0 0 32 32" fill="none" xmlns="http://www.w3.org/2000/svg">
<path fill-rule="evenodd" clip-rule="evenodd" d="M32.0001 16.0001C32.0001 7.17164 24.8285 0.00012207 16.0001 0.00012207C7.17158 0.00012207 6.10352e-05 7.17164 6.10352e-05 16.0001C6.10352e-05 24.8286 7.17158 32.0001 16.0001 32.0001C24.8285 32.0001 32.0001 24.8286 32.0001 16.0001Z" fill="white"/>
<path fill-rule="evenodd" clip-rule="evenodd" d="M26.2846 28.2568L25.0628 26.8008C19.3418 31.6011 10.8698 31.1076 5.74472 25.6756C0.6196 20.2433 0.6196 11.7569 5.74472 6.3246C10.8698 0.892603 19.3418 0.399163 25.0628 5.19948L26.2846 3.74348C19.7924 -1.7042 10.178 -1.14452 4.362 5.02028C-1.454 11.1848 -1.454 20.8155 4.362 26.98C10.178 33.1448 19.7924 33.7044 26.2846 28.2568Z" fill="url(#paint0_linear)"/>
<path fill-rule="evenodd" clip-rule="evenodd" d="M26.2846 28.2568L25.0628 26.8007C28.2554 24.1217 30.0993 20.1678 30.0993 16.0001C30.0993 11.8324 28.2554 7.87851 25.0628 5.19947L26.2846 3.74347C29.9076 6.78347 32.0001 11.2705 32.0001 16.0001C32.0001 20.7297 29.9076 25.2168 26.2846 28.2568Z" fill="#EDF0F2"/>
<path fill-rule="evenodd" clip-rule="evenodd" d="M11.2028 10.8H16H20.7972V13.1193H17.2738V14.4266L17.2845 14.427C18.7259 14.4927 19.9889 14.6656 20.9074 14.9122C21.3669 15.0354 21.74 15.1754 22.0155 15.3422C22.1532 15.4255 22.2678 15.5156 22.3546 15.623C22.4414 15.7306 22.5 15.8622 22.5 16.0028C22.5 16.1434 22.4414 16.275 22.3546 16.3827C22.2678 16.4901 22.1532 16.5802 22.0155 16.6634C21.74 16.8302 21.3669 16.9702 20.9076 17.0934C19.9889 17.34 18.7259 17.513 17.2845 17.5786L17.2746 17.5791V22.24H16H14.7254V17.5791L14.7155 17.5786C13.2741 17.513 12.0111 17.34 11.0924 17.0934C10.6331 16.9702 10.26 16.8302 9.98453 16.6634C9.84677 16.5802 9.73222 16.4901 9.64542 16.3827C9.55862 16.275 9.5 16.1434 9.5 16.0028C9.5 15.8622 9.55862 15.7306 9.64542 15.623C9.73222 15.5156 9.84677 15.4255 9.98453 15.3422C10.26 15.1754 10.6331 15.0354 11.0926 14.9122C12.0111 14.6656 13.2741 14.4927 14.7155 14.427L14.7262 14.4266V13.1193H11.2028V10.8ZM14.7303 16.8292L16 16.8573L17.2696 16.8292C18.526 16.774 19.623 16.6373 20.3976 16.4525C20.785 16.36 21.0922 16.2546 21.2923 16.1475C21.3925 16.0941 21.4652 16.0399 21.5079 15.9932C21.5506 15.9464 21.5624 15.9126 21.5624 15.8837C21.5624 15.8549 21.5506 15.8211 21.5079 15.7743C21.4652 15.7276 21.3925 15.6734 21.2925 15.6199C21.0924 15.5129 20.7852 15.4075 20.398 15.315C19.6245 15.1306 18.5295 14.9941 17.275 14.9387V16.2441L17.2499 16.2464C17.2174 16.2492 17.102 16.2591 16.894 16.2679C16.79 16.2722 16.6628 16.2765 16.5116 16.2795C16.436 16.281 16.3544 16.2822 16.2664 16.283C16.2224 16.2834 16.1771 16.2838 16.1298 16.284H16H15.8701C15.8228 16.2838 15.7775 16.2834 15.7336 16.283C15.6455 16.2822 15.5639 16.281 15.4883 16.2795C15.3371 16.2765 15.2099 16.2722 15.1059 16.2679C14.8979 16.2591 14.7825 16.2492 14.75 16.2464L14.7249 16.2441V14.9387C13.4704 14.9941 12.3754 15.1306 11.6019 15.315C11.2148 15.4075 10.9076 15.5129 10.7074 15.6199C10.6074 15.6734 10.5347 15.7276 10.492 15.7743C10.4493 15.8211 10.4375 15.8549 10.4375 15.8837C10.4375 15.9126 10.4493 15.9464 10.492 15.9932C10.5347 16.0399 10.6074 16.0941 10.7077 16.1475C10.9078 16.2546 11.215 16.36 11.6023 16.4525C12.3769 16.6373 13.474 16.774 14.7303 16.8292Z" fill="black"/>
<defs>
<linearGradient id="paint0_linear" x1="3.37603" y1="0" x2="3.37603" y2="32.0002" gradientUnits="userSpaceOnUse">
<stop stop-color="#27D3A2"/>
<stop offset="1" stop-color="#9388FD"/>
</linearGradient>
</defs>
</svg>

<svg fill="none" viewBox="0 0 32 32"><path fill="#fff" fill-rule="evenodd" d="M32 16c0-8.828-7.172-16-16-16S0 7.172 0 16c0 8.829 7.172 16 16 16s16-7.171 16-16z" clip-rule="evenodd"/><path fill="url(#paint0_linear)" fill-rule="evenodd" d="M26.285 28.257L25.063 26.8c-5.721 4.8-14.193 4.307-19.318-1.125-5.125-5.433-5.125-13.92 0-19.351C10.87.893 19.342.399 25.063 5.199l1.222-1.456C19.792-1.704 10.178-1.145 4.362 5.02c-5.816 6.165-5.816 15.796 0 21.96 5.816 6.165 15.43 6.724 21.923 1.277z" clip-rule="evenodd"/><path fill="#EDF0F2" fill-rule="evenodd" d="M26.285 28.257L25.063 26.8a14.1 14.1 0 000-21.602l1.222-1.456a16 16 0 010 24.514z" clip-rule="evenodd"/><path fill="#000" fill-rule="evenodd" d="M11.203 10.8h9.594v2.32h-3.523v1.307h.01c1.442.066 2.705.239 3.623.485.46.123.833.263 1.108.43.138.083.253.174.34.281.086.108.145.24.145.38s-.059.272-.145.38a1.272 1.272 0 01-.34.28c-.275.167-.648.307-1.107.43-.92.247-2.182.42-3.623.486h-.01v4.661h-2.55v-4.66l-.01-.001c-1.44-.066-2.704-.239-3.623-.486-.459-.123-.832-.263-1.107-.43a1.27 1.27 0 01-.34-.28.612.612 0 01-.145-.38c0-.14.059-.272.145-.38.087-.107.202-.197.34-.28.275-.168.648-.308 1.108-.43.918-.247 2.181-.42 3.623-.486h.01v-1.308h-3.523V10.8zm3.527 6.03l1.27.027 1.27-.028c1.256-.055 2.353-.192 3.128-.377.387-.092.694-.197.894-.305a.825.825 0 00.216-.154c.043-.047.054-.08.054-.11 0-.028-.011-.062-.054-.109a.829.829 0 00-.215-.154c-.2-.107-.508-.212-.895-.305-.773-.184-1.869-.32-3.123-.376v1.305l-.025.002a7.968 7.968 0 01-.356.022 17.715 17.715 0 01-.764.016h-.26a27.607 27.607 0 01-.764-.016 7.968 7.968 0 01-.356-.022l-.025-.002V14.94c-1.255.055-2.35.192-3.123.376-.387.093-.694.198-.895.305a.829.829 0 00-.215.154c-.043.047-.055.08-.055.11 0 .029.012.062.055.11a.85.85 0 00.216.154c.2.107.507.212.894.305.775.184 1.872.321 3.128.376z" clip-rule="evenodd"/><defs><linearGradient id="paint0_linear" x1="3.376" x2="3.376" y1="0" y2="32" gradientUnits="userSpaceOnUse"><stop stop-color="#27D3A2"/><stop offset="1" stop-color="#9388FD"/></linearGradient></defs></svg>
